X: 13958
T: Franc A'Phoill
R: jig
M: 6/8
K: Gmajor
|:~A2D ~B2D|~A2 G FED|~A2 B cAF|~G3 GFG|
~A2D ~B2D|~A2G FED|cEG cBA|1 ~G2 A GFG:|2 ~G2 A GFD||
|:dfa a (3gfd|ded cAG|FGA cAG|~G2 A GFD|
dfa afa|gfe ~f2 e|d (3gfe dAF|GEF GFE:|
|:d (3gfe d (3gfe|dAG FED|ded dAF|GEF GFe|
ded c2A|BAG AFD|cEG cAF|~G2 AG (3AB^c:|
|:dDD cDD|BDD ADD|ded cBA|(3FGA G FED|
[1 dDD cDD|BDD ADD|cEG cBA|~ G2 AG (3AB^c:|
[2 d2e c2 A|BAG AFD|cEG cBA|~G2 A GFG:|

